X: 23
T: Cotillon XXIII.     l' Ecolier.
%R: reel
B: J. Longman "XXIV New Cotillons or French Dances", London 1770 #23
F: http://http://www.vwml.org/browse/browse-collections-dance-tune-books/browse-longmans 2015-2-22
Z: 2015 John Chambers <jc:trillian.mit.edu>
M: 2/4
L: 1/16
K: Bb
% - - - - - - - - - - - - - - - - - - - - - - - - - - - - -
%Voice 1 is formatted for a small scale.
V: 1 clef=treble
|:\
b2(dB) A2F2 | (GE)(DC) D2B,2 |\
b2(dB) A2F2 | (GB)(Ac) B4 :|\
B2(gf) =e2C2 | D2(ba) {a}g4 |\
(af)(bg) (af)(bg) | (ag)(f=e) {e}f4 |\
b2(dB) A2F2 | (GE)(DC) D2B,2 |
b2dB A2F2 | GBAc B4 |:\
d2BG ECCC | c2AF DB,B,B, |\
BAG^F Ggfe | dcBA G4 |\
b2dB A2F2 | GEDC D2B,2 |\
b2dB A2F2 | GBAc B4 :|
% - - - - - - - - - - - - - - - - - - - - - - - - - - - - -
%Voice 2 preserves the original staff breaks.
V: 2 clef=bass middle=d
|:\
b3e f2d2 | e2f2 B4 | d3e f2d2 | e2f2 B4 :| g2b2c'2c2 | d2B2 c4 | a2g2 f3b |
c'2c2 f3e | d3ef2d2 | e2f2 B4 | d3ef2d2 | e2f2 B4 |: g2b2c'2c2 | f2a2b2B2 |
c2d2 e2c2 | d2D2 G4 | B3e f2d2 | e2f2 B4 | d3e f2d2 | e2f2 B4 :|
% - - - - - - - - - - Dance description - - - - - - - - - -
%%begintext align
%% All round: Each turn his Partner, Ballance, turn each others Partners: Ballance
%% a Rigadoon Step: Every Gentleman turn his Partner into her Place.
%%endtext
%%text See the title page for the set of 9 "changes" for this dance.

%%sep 1 1 500
%%sep 1 1 500
